X: 3
P: Tyysk\"a
O: Jussi Hongisto, Kiikoinen
N: from copy of unidentified page
Z: 2005 John Chambers <jc@trillian.mit.edu>
R: shottish
M: 4/4
L: 1/8
K: Am
E2 \
|: "Am"A>B cB A>B cd | e>a ae c2 c2 | "E7"B>c dB ^G2 B2 |1,3 "Am"A>B cB "Am"A2 E2 \
                                                       :|2,4 "Am"A2 A2 A2 z2 :|
|:  "C"G2 G2 c2 e2 | g2 fe "G7"d2 cd |  "C"e2  c2     ce  ge  | "G7"d2 d2 d2 "E7"E2 \
| "Am"A2 AB c>B cd | e2 dc "E7"B2 AB | "Am"c>e cA "E7"B>d B^G | "Am"A2 A2 A2 z2 :|
